pix_core/f/chart.svg

<svg fill="none" preserveAspectRatio="xMinYMid meet" viewBox="0 0 24 24" xmlns="http://www.w3.org/2000/svg"><path clip-rule="evenodd" d="m7 3.5c-.82843 0-1.5.67157-1.5 1.5v14c0 .8284.67157 1.5 1.5 1.5h10c.8284 0 1.5-.6716 1.5-1.5v-10c0-.27614-.2239-.5-.5-.5h-3c-.8284 0-1.5-.67157-1.5-1.5v-3c0-.27614-.2239-.5-.5-.5zm12.5 15.5v-10-.17157c0-.66304-.2634-1.29893-.7322-1.76777l-3.8285-3.82843c-.4688-.46884-1.1047-.73223-1.7677-.73223h-.1716-6c-1.38071 0-2.5 1.11929-2.5 2.5v14c0 1.3807 1.11929 2.5 2.5 2.5h10c1.3807 0 2.5-1.1193 2.5-2.5zm-1.7071-11.5-3.2929-3.29289v2.79289c0 .27614.2239.5.5.5zm-8.2929 2.5c0-.27614-.22386-.5-.5-.5s-.5.22386-.5.5v7c0 .2761.22386.5.5.5s.5-.2239.5-.5zm2.5 1.5c.2761 0 .5.2239.5.5v5c0 .2761-.2239.5-.5.5s-.5-.2239-.5-.5v-5c0-.2761.2239-.5.5-.5zm3.5 1.5c0-.2761-.2239-.5-.5-.5s-.5.2239-.5.5v4c0 .2761.2239.5.5.5s.5-.2239.5-.5z" fill="#fff" fill-rule="evenodd"/></svg>

<svg viewBox="0 0 24 24" fill="none" xmlns="http://www.w3.org/2000/svg" preserveAspectRatio="xMinYMid meet">
<path fill-rule="evenodd" clip-rule="evenodd" d="M7 3.5C6.17157 3.5 5.5 4.17157 5.5 5V19C5.5 19.8284 6.17157 20.5 7 20.5H17C17.8284 20.5 18.5 19.8284 18.5 19V9C18.5 8.72386 18.2761 8.5 18 8.5H15C14.1716 8.5 13.5 7.82843 13.5 7V4C13.5 3.72386 13.2761 3.5 13 3.5H7ZM19.5 19V9V8.82843C19.5 8.16539 19.2366 7.5295 18.7678 7.06066L14.9393 3.23223C14.4705 2.76339 13.8346 2.5 13.1716 2.5H13H7C5.61929 2.5 4.5 3.61929 4.5 5V19C4.5 20.3807 5.61929 21.5 7 21.5H17C18.3807 21.5 19.5 20.3807 19.5 19ZM17.7929 7.5L14.5 4.20711V7C14.5 7.27614 14.7239 7.5 15 7.5H17.7929ZM9.5 10C9.5 9.72386 9.27614 9.5 9 9.5C8.72386 9.5 8.5 9.72386 8.5 10V17C8.5 17.2761 8.72386 17.5 9 17.5C9.27614 17.5 9.5 17.2761 9.5 17V10ZM12 11.5C12.2761 11.5 12.5 11.7239 12.5 12V17C12.5 17.2761 12.2761 17.5 12 17.5C11.7239 17.5 11.5 17.2761 11.5 17V12C11.5 11.7239 11.7239 11.5 12 11.5ZM15.5 13C15.5 12.7239 15.2761 12.5 15 12.5C14.7239 12.5 14.5 12.7239 14.5 13V17C14.5 17.2761 14.7239 17.5 15 17.5C15.2761 17.5 15.5 17.2761 15.5 17V13Z" fill="#fff"/>
</svg>
